packages/core/src/svgs/bld.svg

<svg width="24" height="24" viewBox="0 0 24 24" fill="none" xmlns="http://www.w3.org/2000/svg">
<g clip-path="url(#clip0_31_7140)">
<path d="M0 0H24V24H0V0Z" fill="#F0F3FA"/>
<path d="M3.42847 10.2856H6.85704V13.7142H3.42847V10.2856Z" fill="#BB2D40"/>
<path fill-rule="evenodd" clip-rule="evenodd" d="M20.1429 6.85693H9.85718V17.1426H20.1429V6.85693ZM16.7143 10.2855H13.2857V13.7141H16.7143V10.2855Z" fill="#BB2D40"/>
</g>
<defs>
<clipPath id="clip0_31_7140">
<rect width="24" height="24" fill="white"/>
</clipPath>
</defs>
</svg>

<svg xmlns="http://www.w3.org/2000/svg" width="24" height="24" fill="none" viewBox="0 0 24 24"><g clip-path="url(#a)"><path fill="#F0F3FA" d="M0 0h24v24H0z"/><path fill="#BB2D40" d="M3.428 10.286h3.429v3.428H3.428z"/><path fill="#BB2D40" fill-rule="evenodd" d="M20.143 6.857H9.857v10.286h10.286zm-3.429 3.429h-3.428v3.428h3.428z" clip-rule="evenodd"/></g><defs><clipPath id="a"><path fill="#fff" d="M0 0h24v24H0z"/></clipPath></defs></svg>
